X: 51
T: Garry Strathspey
T: 4x32S 4C (Cosh)
T: As written = 4x32
M: C
L: 1/8
Q: 136
C: George Keenan & Jimmy Blair
S: C. Duncan
N: 4 x 32 bar strathspey
Z: Tim Barker, '97
Z: transcribed for Burns Dinner Jan 98
K: G
(3Bc^c||"G"d>Bd>e d>Bd>e|"G"d>ef>g b2 a>g|"G"d2 e>f a2 g>e|"D7"g2 f2 f2(3A^AB|!
"D7"c>Ac>d c>Ac>d|"D7"c>de>f a2 g>e|"D7"g2 f>d f2 e>c|"Gdim"[e2^A2]"G"[d2B2]"G"[d2B2](3Bc^c|!
"G"d>Bd>e d>Bd>e|"G"d>ef>g b2 a>g|"G"d2 e>f "G7"a2 g>b|"C"[a2c2e2][e2c2][e2c2] z2|!
"Am"c'2 c'>b a>e^de|"G"b2 b>a g>d^c>d|"D7"f2 A>B c>de>f|"G"[B2g2][d2b2][B2g2] "Fine"z2 :||!
K:D
"2. Dmaj"a2 f>d A>df>a|"A7"((3gag) e2 ((3GAG) E2|"A7"g2 e>c A>ce>g|"D"((3aba) f2 ((3ABA) F2|!
"D"a2 f>d A>df>a| "A7"(3gag e2 (3GAG E2|"E7"e2 ^gf e>dc>B|"A7"A2 e>f =g>ef>g|!
"D"a2 f>d A>df>a| "A7"(3gag e2 (3GAG E2|"A7"g2 e>c A>ce>g|"D"(3aba f2 (3ABA F2|!
"D"a2 f>d A>df>a| "A7"(3gag e>f g>ef>g|"A7"a2 b>a g>Ac>e|"D"d6 (3B/=c/-d/ :||!
K:C
 "3. C"e4-e>Gc>e|"C"a2-g z "A7"f2-e z|"D7"e>d^c>d e>dc>d|"D7"A4-A>dc>A|!
"G7"B>c^c>d b2 a2|"C"c>d^d>e a2 g2|"D7"d>e^f>g a>fe>d|"G7"g2 b>ag>=f d>^d|!
"C"e4-e>Gc>e|"C"a2-g z "A7"f2-e z|"D7"e>d^c>d e>dc>d|"D7"A4-A>dc>A|!
"G"B>c^c>d b2 a2|"C"c>d^d>e a2 g2|"G"[GB]>[Ac][Bd]>[ce] [df]>[eg][fa]>[gb]|"C"[c2e2c'2][c2e2c'2][c2e2c'2] "DC al fine"(3B/c/^c/ :||
